X:167
T: Csaplárosné mit ugat a kutyája
O: Háromkút, 1962
Q:"Tempo guisto"
M:4/4
L:1/4
K:F
d/d/d/d/ d/B/B/B/ | d<d f z |
g/g/d/d/ d/c/B/B/ | d<c B z | 
d/d/d/d/ G/G/G/F/ | d<c B z | 
d/d/d/d/ G/G/c/B/ | AGG z | 

